public/logos/AQ.svg

<?xml version="1.0" encoding="UTF-8"?>
<svg xmlns="http://www.w3.org/2000/svg" xmlns:xlink="http://www.w3.org/1999/xlink" width="171.81pt" height="59pt" viewBox="0 0 171.81 59" version="1.1">
<defs>
<clipPath id="clip1">
  <path d="M 147 17 L 171.808594 17 L 171.808594 28 L 147 28 Z M 147 17 "/>
</clipPath>
<clipPath id="clip2">
  <path d="M 147 3 L 171.808594 3 L 171.808594 11 L 147 11 Z M 147 3 "/>
</clipPath>
<clipPath id="clip3">
  <path d="M 160 10 L 171.808594 10 L 171.808594 17 L 160 17 Z M 160 10 "/>
</clipPath>
</defs>
<g id="surface1">
<path style=" stroke:none;fill-rule:nonzero;fill:rgb(96.205139%,49.777222%,8.51593%);fill-opacity:1;" d="M 30.628906 19.601562 C 24.875 19.570312 20.652344 23.804688 20.707031 29.460938 C 20.742188 33.003906 22.835938 34.835938 26.304688 34.152344 C 30.089844 33.410156 33.375 31.652344 35.941406 28.710938 C 36.472656 28.105469 36.9375 27.410156 37.277344 26.679688 C 38.304688 24.46875 37.714844 22.441406 35.679688 21.113281 C 34.125 20.101562 32.414062 19.535156 30.628906 19.601562 Z M 41.792969 35.050781 C 41.007812 35.804688 40.234375 36.570312 39.429688 37.304688 C 31.796875 44.269531 22.855469 46.945312 12.703125 45.1875 C 10.601562 44.824219 8.515625 43.84375 6.644531 42.765625 C 2.816406 40.566406 0.597656 37.101562 0.179688 32.707031 C -0.808594 22.320312 2.214844 13.328125 10.570312 6.828125 C 28.753906 -7.3125 53.078125 1.863281 58.492188 21.933594 C 63.242188 39.554688 50.640625 57.496094 32.453125 58.894531 C 24.015625 59.546875 16.625 57.144531 10.15625 51.757812 C 9.582031 51.277344 9.023438 50.75 8.570312 50.160156 C 8.34375 49.867188 8.167969 49.226562 8.332031 49.015625 C 8.578125 48.691406 9.136719 48.441406 9.558594 48.453125 C 10.097656 48.464844 10.628906 48.765625 11.164062 48.933594 C 19.414062 51.539062 27.140625 50.460938 34.265625 45.535156 C 37.351562 43.40625 39.796875 40.632812 41.664062 37.378906 C 42 36.785156 42.089844 36.050781 42.292969 35.382812 C 42.125 35.273438 41.960938 35.160156 41.792969 35.050781 "/>
<path style=" stroke:none;fill-rule:nonzero;fill:rgb(12.875366%,9.155273%,8.908081%);fill-opacity:1;" d="M 74.800781 3.546875 C 76.257812 3.546875 77.621094 3.546875 79.152344 3.546875 C 79.011719 4.363281 78.878906 5.121094 78.699219 6.144531 C 80.335938 6.144531 81.871094 6.144531 83.410156 6.144531 C 84.164062 6.144531 84.917969 6.128906 85.667969 6.15625 C 88.285156 6.25 89.324219 7.230469 89.359375 9.84375 C 89.410156 13.984375 89.375 18.128906 89.378906 22.273438 C 89.378906 22.949219 89.378906 23.628906 89.378906 24.515625 C 90.835938 24.582031 92.113281 24.640625 93.652344 24.710938 C 93.335938 25.84375 93.054688 26.835938 92.738281 27.972656 C 90.734375 27.972656 88.8125 28.03125 86.898438 27.945312 C 85.945312 27.902344 85.28125 27.242188 85.085938 26.289062 C 84.925781 25.496094 84.832031 24.675781 84.828125 23.867188 C 84.800781 19.847656 84.824219 15.832031 84.8125 11.816406 C 84.804688 9.824219 84.53125 9.558594 82.515625 9.535156 C 80.949219 9.515625 79.386719 9.53125 77.621094 9.53125 C 75.804688 15.667969 74.003906 21.769531 72.179688 27.933594 C 70.671875 27.933594 69.265625 27.933594 67.628906 27.933594 C 69.40625 21.769531 71.128906 15.777344 72.921875 9.566406 C 70.894531 9.566406 69.15625 9.566406 67.140625 9.566406 C 67.496094 8.316406 67.789062 7.285156 68.117188 6.132812 C 70.109375 6.132812 71.96875 6.132812 73.855469 6.132812 C 74.183594 5.238281 74.460938 4.484375 74.800781 3.546875 "/>
<path style=" stroke:none;fill-rule:nonzero;fill:rgb(12.875366%,9.155273%,8.908081%);fill-opacity:1;" d="M 140.734375 42.953125 C 142.722656 42.953125 144.511719 42.972656 146.300781 42.945312 C 148.1875 42.917969 149.15625 42.15625 149.351562 40.609375 C 149.558594 38.960938 148.601562 37.46875 146.886719 37.195312 C 145.550781 36.980469 144.144531 36.96875 142.804688 37.136719 C 141.714844 37.273438 140.839844 38.023438 140.753906 39.246094 C 140.667969 40.410156 140.734375 41.582031 140.734375 42.953125 Z M 149.984375 45.789062 C 151.8125 48.800781 153.589844 51.726562 155.621094 55.078125 C 153.671875 55.078125 152.148438 55.171875 150.648438 55.019531 C 150.199219 54.976562 149.746094 54.296875 149.421875 53.824219 C 148.003906 51.769531 146.761719 49.585938 145.203125 47.652344 C 144.019531 46.179688 142.910156 46.015625 140.828125 46.292969 C 140.828125 49.117188 140.828125 51.972656 140.828125 54.957031 C 139.164062 54.957031 137.691406 54.957031 136.0625 54.957031 C 136.015625 54.53125 135.917969 54.054688 135.917969 53.582031 C 135.90625 48.503906 135.902344 43.421875 135.917969 38.34375 C 135.925781 35.738281 137.046875 33.949219 139.585938 33.675781 C 142.722656 33.34375 145.984375 33.230469 149.085938 33.71875 C 152.847656 34.3125 154.851562 38.03125 153.988281 41.722656 C 153.511719 43.773438 152.582031 44.71875 149.984375 45.789062 "/>
<path style=" stroke:none;fill-rule:nonzero;fill:rgb(12.875366%,9.155273%,8.908081%);fill-opacity:1;" d="M 91.136719 43.835938 C 93.15625 43.867188 94.796875 42.433594 94.828125 40.613281 C 94.855469 38.796875 93.261719 37.335938 91.222656 37.308594 C 89.183594 37.28125 87.5625 38.691406 87.539062 40.515625 C 87.511719 42.332031 89.105469 43.804688 91.136719 43.835938 Z M 83.226562 53.199219 C 83.984375 52.167969 84.75 51.125 85.476562 50.132812 C 91.964844 51.632812 93.425781 51.097656 94.554688 46.71875 C 94.089844 46.90625 93.730469 47.027344 93.394531 47.1875 C 89.742188 48.914062 85.191406 47.457031 83.527344 44.027344 C 81.691406 40.230469 83.25 35.910156 87.128906 34.050781 C 92.769531 31.355469 98.347656 34.179688 99.488281 40.339844 C 100.03125 43.277344 99.996094 46.21875 98.992188 49.0625 C 96.675781 55.621094 88.441406 57.828125 83.226562 53.199219 "/>
<path style=" stroke:none;fill-rule:nonzero;fill:rgb(12.875366%,9.155273%,8.908081%);fill-opacity:1;" d="M 115.160156 46.140625 C 114.1875 43.871094 113.347656 41.921875 112.328125 39.550781 C 111.292969 42.003906 110.445312 44.003906 109.546875 46.140625 C 111.535156 46.140625 113.1875 46.140625 115.160156 46.140625 Z M 123.804688 55.027344 C 122.125 55.027344 120.570312 55.027344 118.886719 55.027344 C 118.238281 53.476562 117.59375 51.925781 116.902344 50.269531 C 114.167969 50.269531 111.480469 50.230469 108.796875 50.3125 C 108.394531 50.324219 107.84375 50.839844 107.652344 51.257812 C 107.105469 52.445312 106.710938 53.699219 106.230469 54.992188 C 104.554688 54.992188 102.949219 54.992188 101.191406 54.992188 C 101.269531 54.625 101.285156 54.269531 101.414062 53.96875 C 103.945312 48.03125 106.476562 42.09375 109.035156 36.171875 C 109.816406 34.359375 110.863281 33.707031 112.648438 33.761719 C 113.949219 33.796875 114.960938 34.328125 115.5 35.546875 C 118.277344 41.851562 121.039062 48.164062 123.796875 54.480469 C 123.84375 54.582031 123.804688 54.71875 123.804688 55.027344 "/>
<path style=" stroke:none;fill-rule:nonzero;fill:rgb(12.875366%,9.155273%,8.908081%);fill-opacity:1;" d="M 114.15625 24.605469 C 115.503906 24.605469 116.789062 24.605469 118.21875 24.605469 C 118.21875 25.777344 118.21875 26.746094 118.21875 27.9375 C 115.914062 27.9375 113.558594 28.082031 111.230469 27.878906 C 109.933594 27.769531 109.550781 26.527344 109.546875 25.300781 C 109.539062 22.476562 109.539062 19.65625 109.539062 16.832031 C 109.539062 16.148438 109.539062 15.464844 109.539062 14.628906 C 107.578125 14.628906 105.730469 14.628906 103.621094 14.628906 C 102.371094 18.941406 101.089844 23.367188 99.777344 27.890625 C 98.265625 27.890625 96.796875 27.890625 95.121094 27.890625 C 96.410156 23.433594 97.660156 19.121094 98.984375 14.554688 C 97.234375 14.554688 95.652344 14.554688 93.929688 14.554688 C 93.929688 13.246094 93.929688 12.164062 93.929688 10.941406 C 94.613281 10.90625 95.21875 10.847656 95.832031 10.847656 C 102.34375 10.839844 108.855469 10.835938 115.371094 10.84375 C 118.179688 10.847656 118.621094 11.390625 118.152344 14.417969 C 116.902344 14.417969 115.617188 14.417969 114.15625 14.417969 C 114.15625 17.871094 114.15625 21.132812 114.15625 24.605469 "/>
<path style=" stroke:none;fill-rule:nonzero;fill:rgb(12.875366%,9.155273%,8.908081%);fill-opacity:1;" d="M 128 13.167969 C 126.59375 14.375 125.84375 13.453125 124.964844 12.089844 C 125.046875 13.21875 125.09375 13.867188 125.144531 14.574219 C 126.160156 14.574219 127.007812 14.574219 127.933594 14.574219 C 127.953125 14.128906 127.972656 13.773438 128 13.167969 Z M 127.933594 18.460938 C 125.3125 18.015625 125.136719 18.089844 125.148438 19.574219 C 126.796875 19.367188 126.796875 19.367188 127.933594 21.605469 C 127.933594 20.449219 127.933594 19.441406 127.933594 18.460938 Z M 128.050781 11.664062 C 128.050781 10.933594 128.027344 10.207031 128.058594 9.480469 C 128.101562 8.285156 127.402344 8.011719 126.390625 8.054688 C 125.25 8.105469 124.875 8.667969 125.171875 9.832031 C 127.105469 8.988281 127.269531 10.644531 128.050781 11.664062 Z M 124.964844 22.300781 C 124.964844 24.105469 124.964844 25.910156 124.964844 27.886719 C 123.828125 27.886719 122.8125 27.886719 121.480469 27.886719 C 121.480469 27.007812 121.480469 26.09375 121.480469 25.179688 C 121.480469 23.425781 121.5 21.667969 121.472656 19.910156 C 121.464844 19.425781 121.457031 18.863281 121.222656 18.476562 C 120.230469 16.84375 120.453125 16.121094 121.148438 14.449219 C 121.625 13.296875 121.648438 11.644531 121.1875 10.488281 C 120.433594 8.597656 120.3125 7.300781 121.582031 5.871094 C 122.203125 5.167969 122.734375 4.390625 123.4375 3.476562 C 124.085938 3.476562 124.894531 3.464844 125.699219 3.480469 C 126.003906 3.488281 126.546875 3.507812 126.574219 3.621094 C 126.933594 5.144531 128.167969 4.59375 129.101562 4.742188 C 130.664062 4.996094 131.480469 5.859375 131.570312 7.566406 C 131.648438 9.070312 131.605469 10.578125 131.605469 12.085938 C 131.605469 16.664062 131.605469 21.246094 131.605469 25.828125 C 131.605469 26.503906 131.605469 27.175781 131.605469 27.957031 C 130.335938 27.957031 129.300781 27.957031 128.132812 27.957031 C 128.132812 27.0625 128.132812 26.269531 128.132812 25.285156 C 125.808594 25.535156 125.90625 23.617188 125.371094 22.246094 C 125.234375 22.265625 125.101562 22.28125 124.964844 22.300781 "/>
<g clip-path="url(#clip1)" clip-rule="nonzero">
<path style=" stroke:none;fill-rule:nonzero;fill:rgb(12.875366%,9.155273%,8.908081%);fill-opacity:1;" d="M 171.808594 24.65625 C 171.808594 25.90625 171.808594 26.871094 171.808594 27.945312 C 163.644531 27.945312 155.597656 27.945312 147.414062 27.945312 C 147.414062 26.914062 147.414062 25.949219 147.414062 24.757812 C 150.746094 24.757812 154.039062 24.757812 157.472656 24.757812 C 157.472656 23.378906 157.472656 22.222656 157.472656 20.792969 C 154.371094 20.792969 151.226562 20.792969 147.953125 20.792969 C 147.953125 19.554688 147.953125 18.585938 147.953125 17.453125 C 155.664062 17.453125 163.382812 17.453125 171.242188 17.453125 C 171.242188 18.484375 171.242188 19.5 171.242188 20.707031 C 168.09375 20.707031 165.054688 20.707031 161.894531 20.707031 C 161.894531 22.050781 161.894531 23.210938 161.894531 24.65625 C 165.167969 24.65625 168.4375 24.65625 171.808594 24.65625 "/>
</g>
<path style=" stroke:none;fill-rule:nonzero;fill:rgb(12.875366%,9.155273%,8.908081%);fill-opacity:1;" d="M 145.160156 27.875 C 144.609375 27.980469 144.429688 28.039062 144.246094 28.046875 C 140.761719 28.191406 140.199219 27.652344 140.195312 24.167969 C 140.191406 21.59375 140.203125 19.023438 140.1875 16.453125 C 140.183594 15.765625 140.277344 14.996094 140.003906 14.414062 C 139.761719 13.910156 139.066406 13.324219 138.574219 13.320312 C 138.066406 13.320312 137.402344 13.894531 137.097656 14.390625 C 136.835938 14.8125 136.960938 15.488281 136.960938 16.050781 C 136.949219 19.4375 136.960938 22.824219 136.949219 26.210938 C 136.949219 26.757812 136.886719 27.304688 136.847656 27.953125 C 135.621094 27.953125 134.523438 27.953125 133.289062 27.953125 C 133.230469 27.441406 133.121094 26.96875 133.121094 26.488281 C 133.105469 22.226562 133.09375 17.960938 133.121094 13.695312 C 133.136719 10.648438 133.90625 9.898438 136.898438 9.890625 C 138.214844 9.886719 139.527344 9.875 140.84375 9.890625 C 143.121094 9.921875 144.035156 10.765625 144.078125 13.074219 C 144.140625 16.148438 144.078125 19.222656 144.109375 22.292969 C 144.117188 23.226562 143.9375 24.105469 144.875 24.972656 C 145.394531 25.449219 145.089844 26.828125 145.160156 27.875 "/>
<path style=" stroke:none;fill-rule:nonzero;fill:rgb(12.875366%,9.155273%,8.908081%);fill-opacity:1;" d="M 131.660156 55.003906 C 129.929688 55.003906 128.445312 55.003906 126.828125 55.003906 C 126.769531 54.511719 126.660156 54.035156 126.660156 53.558594 C 126.648438 47.851562 126.640625 42.148438 126.660156 36.441406 C 126.664062 34.492188 127.421875 33.734375 129.195312 33.757812 C 130.828125 33.777344 131.605469 34.492188 131.644531 36.167969 C 131.695312 38.171875 131.660156 40.179688 131.660156 42.1875 C 131.660156 46.378906 131.660156 50.574219 131.660156 55.003906 "/>
<g clip-path="url(#clip2)" clip-rule="nonzero">
<path style=" stroke:none;fill-rule:nonzero;fill:rgb(12.875366%,9.155273%,8.908081%);fill-opacity:1;" d="M 171.546875 10.464844 C 170.269531 10.464844 169.097656 10.464844 167.78125 10.464844 C 167.753906 8.414062 166.351562 8.34375 164.722656 8.378906 C 161.148438 8.453125 157.578125 8.394531 154.007812 8.402344 C 151.992188 8.40625 151.992188 8.417969 151.507812 10.460938 C 150.304688 10.460938 149.074219 10.460938 147.636719 10.460938 C 147.636719 9.386719 147.523438 8.335938 147.664062 7.320312 C 147.863281 5.90625 148.867188 5.117188 150.46875 5.046875 C 152.15625 4.976562 153.855469 5.082031 155.539062 4.988281 C 156.152344 4.953125 156.839844 4.691406 157.332031 4.320312 C 158.851562 3.167969 160.410156 3.183594 161.953125 4.382812 C 162.394531 4.722656 163.019531 4.957031 163.578125 4.988281 C 165.015625 5.074219 166.460938 5.007812 167.898438 5.023438 C 170.738281 5.046875 171.6875 6.03125 171.664062 8.925781 C 171.660156 9.410156 171.59375 9.894531 171.546875 10.464844 "/>
</g>
<path style=" stroke:none;fill-rule:nonzero;fill:rgb(12.875366%,9.155273%,8.908081%);fill-opacity:1;" d="M 95.328125 7.046875 C 95.328125 5.824219 95.328125 4.773438 95.328125 3.589844 C 95.941406 3.546875 96.484375 3.476562 97.027344 3.476562 C 102.722656 3.46875 108.417969 3.464844 114.113281 3.476562 C 116.835938 3.480469 117.328125 4.125 116.804688 7.046875 C 109.722656 7.046875 102.617188 7.046875 95.328125 7.046875 "/>
<path style=" stroke:none;fill-rule:nonzero;fill:rgb(12.875366%,9.155273%,8.908081%);fill-opacity:1;" d="M 132.460938 8.253906 C 132.460938 7.203125 132.460938 6.230469 132.460938 5.019531 C 133.234375 5.019531 133.902344 5.007812 134.570312 5.019531 C 135.335938 5.035156 135.941406 4.914062 136.566406 4.296875 C 137.808594 3.078125 139.574219 3.222656 141.007812 4.328125 C 141.453125 4.671875 142.058594 4.945312 142.613281 4.992188 C 144.953125 5.1875 145.277344 5.5625 144.992188 8.253906 C 140.859375 8.253906 136.710938 8.253906 132.460938 8.253906 "/>
<path style=" stroke:none;fill-rule:nonzero;fill:rgb(12.875366%,9.155273%,8.908081%);fill-opacity:1;" d="M 147.707031 15.957031 C 147.707031 14.855469 147.707031 13.878906 147.707031 12.792969 C 148.390625 12.6875 149.007812 12.644531 149.597656 12.484375 C 150.613281 12.214844 151.886719 12.164062 152.566406 11.511719 C 154.347656 9.800781 156.34375 10.414062 158.347656 10.402344 C 157.777344 13.839844 153.117188 16.277344 147.707031 15.957031 "/>
<g clip-path="url(#clip3)" clip-rule="nonzero">
<path style=" stroke:none;fill-rule:nonzero;fill:rgb(12.875366%,9.155273%,8.908081%);fill-opacity:1;" d="M 171.410156 13.25 C 171.410156 13.980469 171.410156 14.898438 171.410156 15.796875 C 167.546875 16.96875 162.3125 14.371094 160.914062 10.460938 C 162.757812 10.417969 164.398438 9.933594 166.171875 11.246094 C 167.539062 12.261719 169.457031 12.539062 171.410156 13.25 "/>
</g>
</g>
</svg>

<svg xmlns="http://www.w3.org/2000/svg" width="229.08" height="59pt" viewBox="0 0 171.81 59"><defs><clipPath id="a"><path d="M147 17h24.809v11H147Zm0 0"/></clipPath><clipPath id="b"><path d="M147 3h24.809v8H147Zm0 0"/></clipPath><clipPath id="c"><path d="M160 10h11.809v7H160Zm0 0"/></clipPath></defs><path d="M30.629 19.602c-5.754-.032-9.977 4.203-9.922 9.859.035 3.543 2.129 5.375 5.598 4.691 3.785-.742 7.07-2.5 9.636-5.441.532-.606.996-1.3 1.336-2.031 1.028-2.211.438-4.239-1.597-5.567-1.555-1.011-3.266-1.578-5.051-1.511M41.793 35.05c-.785.754-1.559 1.52-2.363 2.254-7.633 6.965-16.575 9.64-26.727 7.883-2.101-.364-4.187-1.344-6.058-2.422C2.816 40.566.598 37.102.18 32.707-.81 22.32 2.215 13.328 10.57 6.828c18.184-14.14 42.508-4.965 47.922 15.106 4.75 17.62-7.851 35.562-26.039 36.96-8.437.653-15.828-1.75-22.297-7.136-.574-.48-1.133-1.008-1.586-1.598-.226-.293-.402-.933-.238-1.144.246-.325.805-.575 1.227-.563.539.012 1.07.313 1.605.48 8.25 2.606 15.977 1.528 23.102-3.398 3.086-2.129 5.53-4.902 7.398-8.156.336-.594.426-1.328.629-1.996q-.25-.167-.5-.332" style="stroke:none;fill-rule:nonzero;fill:#f57f16;fill-opacity:1"/><path d="M74.8 3.547h4.352c-.14.816-.273 1.574-.453 2.598h4.711c.754 0 1.508-.016 2.258.011 2.617.094 3.656 1.074 3.691 3.688.051 4.14.016 8.285.02 12.43v2.242l4.273.195c-.316 1.133-.597 2.125-.914 3.262-2.004 0-3.925.058-5.84-.028-.953-.043-1.617-.703-1.812-1.656a12.6 12.6 0 0 1-.258-2.422c-.027-4.02-.004-8.035-.016-12.05-.007-1.993-.28-2.258-2.296-2.282-1.567-.02-3.13-.004-4.895-.004-1.816 6.137-3.617 12.239-5.441 18.403h-4.551c1.777-6.164 3.5-12.157 5.293-18.368H67.14l.976-3.433h5.738c.329-.895.606-1.649.946-2.586M140.734 42.953c1.989 0 3.778.02 5.567-.008 1.887-.027 2.855-.789 3.05-2.336.208-1.648-.75-3.14-2.464-3.414a14.6 14.6 0 0 0-4.082-.058c-1.09.136-1.965.886-2.051 2.11-.086 1.163-.02 2.335-.02 3.706m9.25 2.836c1.828 3.012 3.606 5.938 5.637 9.29-1.95 0-3.473.093-4.973-.06-.449-.042-.902-.722-1.226-1.195-1.418-2.054-2.66-4.238-4.219-6.172-1.183-1.472-2.293-1.636-4.375-1.359v8.664h-4.766c-.046-.426-.144-.902-.144-1.375-.012-5.078-.016-10.16 0-15.238.008-2.606 1.129-4.395 3.668-4.668 3.137-.332 6.398-.446 9.5.043 3.762.593 5.766 4.312 4.902 8.004-.476 2.05-1.406 2.996-4.004 4.066M91.137 43.836c2.02.031 3.66-1.402 3.691-3.223.027-1.816-1.566-3.277-3.605-3.304-2.04-.028-3.66 1.382-3.684 3.207-.027 1.816 1.566 3.289 3.598 3.32m-7.91 9.363 2.25-3.066c6.488 1.5 7.949.965 9.078-3.414-.465.187-.825.308-1.16.468-3.653 1.727-8.204.27-9.868-3.16-1.836-3.797-.277-8.117 3.602-9.976 5.64-2.696 11.219.129 12.36 6.289.542 2.937.507 5.879-.497 8.722-2.316 6.56-10.55 8.766-15.765 4.137M115.16 46.14c-.972-2.269-1.812-4.218-2.832-6.59-1.035 2.454-1.883 4.454-2.781 6.59zm8.645 8.887h-4.918c-.649-1.55-1.293-3.101-1.985-4.757-2.734 0-5.422-.04-8.105.042-.402.012-.953.528-1.145.946-.547 1.187-.941 2.441-1.422 3.734h-5.039c.079-.367.094-.722.223-1.023 2.531-5.938 5.063-11.875 7.621-17.797.781-1.813 1.828-2.465 3.613-2.41 1.301.035 2.313.566 2.852 1.785 2.777 6.305 5.54 12.617 8.297 18.933.047.102.008.239.008.547M114.156 24.605h4.063v3.332c-2.305 0-4.66.145-6.989-.058-1.296-.11-1.68-1.352-1.683-2.578q-.01-4.234-.008-8.469v-2.203h-5.918c-1.25 4.312-2.531 8.738-3.844 13.262h-4.656c1.29-4.457 2.54-8.77 3.863-13.336H93.93V10.94c.683-.035 1.289-.093 1.902-.093a8145 8145 0 0 1 19.54-.004c2.808.004 3.25.547 2.78 3.574h-3.996zM128 13.168c-1.406 1.207-2.156.285-3.035-1.078l.18 2.484h2.789c.02-.445.039-.8.066-1.406m-.066 5.293c-2.621-.445-2.797-.371-2.786 1.113 1.649-.207 1.649-.207 2.786 2.031zm.117-6.797c0-.73-.024-1.457.008-2.184.043-1.195-.657-1.468-1.668-1.425-1.141.05-1.516.613-1.22 1.777 1.934-.844 2.099.813 2.88 1.832m-3.086 10.637v5.586h-3.485V25.18c0-1.754.02-3.512-.007-5.27-.008-.484-.016-1.047-.25-1.433-.993-1.633-.77-2.356-.075-4.028.477-1.152.5-2.804.04-3.96-.754-1.891-.876-3.188.394-4.618.621-.703 1.152-1.48 1.856-2.394.648 0 1.457-.012 2.261.003.305.008.848.028.875.141.36 1.524 1.594.973 2.528 1.121 1.562.254 2.378 1.117 2.468 2.824.078 1.504.035 3.012.035 4.52v15.871h-3.472v-2.672c-2.324.25-2.227-1.668-2.762-3.039-.137.02-.27.035-.406.055" style="stroke:none;fill-rule:nonzero;fill:#211717;fill-opacity:1"/><g clip-path="url(#a)"><path d="M171.809 24.656v3.29h-24.395v-3.188h10.059v-3.965h-9.52v-3.34h23.29v3.254h-9.348v3.95z" style="stroke:none;fill-rule:nonzero;fill:#211717;fill-opacity:1"/></g><path d="M145.16 27.875c-.55.105-.73.164-.914.172-3.484.144-4.047-.395-4.05-3.879-.005-2.574.007-5.145-.008-7.715-.004-.687.09-1.457-.184-2.039-.242-.504-.938-1.09-1.43-1.094-.508 0-1.172.575-1.476 1.07-.262.422-.137 1.098-.137 1.66-.012 3.387 0 6.774-.012 10.16 0 .548-.062 1.095-.101 1.743h-3.559c-.059-.512-.168-.984-.168-1.465-.016-4.261-.027-8.527 0-12.793.016-3.047.785-3.797 3.777-3.804 1.317-.004 2.63-.016 3.946 0 2.277.03 3.191.875 3.234 3.183.063 3.074 0 6.149.031 9.219.008.934-.172 1.812.766 2.68.52.476.215 1.855.285 2.902M131.66 55.004h-4.832c-.058-.492-.168-.969-.168-1.445-.012-5.707-.02-11.41 0-17.118.004-1.949.762-2.707 2.535-2.683 1.633.02 2.41.734 2.45 2.41.05 2.004.015 4.012.015 6.02z" style="stroke:none;fill-rule:nonzero;fill:#211717;fill-opacity:1"/><g clip-path="url(#b)"><path d="M171.547 10.465h-3.766c-.027-2.05-1.43-2.121-3.058-2.086-3.575.074-7.145.016-10.715.023-2.016.004-2.016.016-2.5 2.059h-3.871c0-1.074-.114-2.125.027-3.14.2-1.415 1.203-2.204 2.805-2.274 1.687-.07 3.386.035 5.07-.059a3.5 3.5 0 0 0 1.793-.668c1.52-1.152 3.078-1.136 4.621.063.442.34 1.067.574 1.625.605 1.438.086 2.883.02 4.32.035 2.84.024 3.79 1.008 3.766 3.903-.004.484-.07.969-.117 1.539" style="stroke:none;fill-rule:nonzero;fill:#211717;fill-opacity:1"/></g><path d="M95.328 7.047V3.59c.613-.043 1.156-.113 1.7-.113 5.695-.008 11.39-.012 17.085 0 2.723.003 3.215.648 2.692 3.57zM132.46 8.254V5.02c.774 0 1.442-.012 2.11 0 .766.015 1.371-.106 1.996-.723 1.243-1.219 3.008-1.074 4.442.031.445.344 1.05.617 1.605.664 2.34.196 2.664.57 2.38 3.262zM147.707 15.957v-3.164c.684-.105 1.3-.148 1.89-.309 1.016-.27 2.29-.32 2.97-.972 1.78-1.711 3.777-1.098 5.78-1.11-.57 3.438-5.23 5.875-10.64 5.555" style="stroke:none;fill-rule:nonzero;fill:#211717;fill-opacity:1"/><g clip-path="url(#c)"><path d="M171.41 13.25v2.547c-3.863 1.172-9.097-1.426-10.496-5.336 1.844-.043 3.484-.527 5.258.785 1.367 1.016 3.285 1.293 5.238 2.004" style="stroke:none;fill-rule:nonzero;fill:#211717;fill-opacity:1"/></g></svg>
